packages/ui-icons/src/Service-logos/24/Megadisk.svg

<svg viewBox="0 0 32 32" fill="none" xmlns="http://www.w3.org/2000/svg">
<path fill-rule="evenodd" clip-rule="evenodd" d="M16.0002 4.00049C9.40018 4.00049 4.00018 9.40049 4.00018 16.0005C4.00018 22.5995 9.40018 28.0005 16.0002 28.0005C22.5992 28.0005 28.0002 22.5995 28.0002 16.0005C28.0002 9.40049 22.5992 4.00049 16.0002 4.00049Z" fill="#00B956"/>
<path fill-rule="evenodd" clip-rule="evenodd" d="M10.9 19.5672C10.4122 19.5634 10.0141 19.9679 10.0104 20.4705C10.0068 20.9735 10.399 21.3837 10.8864 21.3878C11.3742 21.3912 11.7723 20.9871 11.7759 20.4841C11.7796 19.9815 11.3873 19.5709 10.9 19.5672Z" fill="#731982"/>
<path fill-rule="evenodd" clip-rule="evenodd" d="M12.8417 19.5821C12.3543 19.5783 11.9562 19.9828 11.9522 20.4858C11.9489 20.9884 12.3411 21.399 12.8285 21.4027C13.3159 21.4065 13.7144 21.002 13.718 20.4994C13.7213 19.9968 13.3291 19.5858 12.8417 19.5821Z" fill="#731982"/>
<path fill-rule="evenodd" clip-rule="evenodd" d="M14.7838 19.5972C14.2964 19.5934 13.898 19.9979 13.8943 20.5009C13.891 21.0036 14.2829 21.4141 14.7707 21.4179C15.2581 21.4216 15.6562 21.0171 15.6602 20.5145C15.6635 20.0115 15.2712 19.601 14.7838 19.5972Z" fill="white"/>
<path fill-rule="evenodd" clip-rule="evenodd" d="M17.5696 15.5775L16.2442 13.5961L16.2439 13.5957H15.6292L15.6288 13.5961L14.3038 15.5775L14.957 16.0416L15.5377 15.1734V18.8691H16.3335V15.1707L16.9161 16.0416L17.5696 15.5775ZM23.8738 17.1865C23.868 19.5321 22.2444 21.1697 19.9264 21.1697H16.0126V20.2086H19.9264C21.7256 20.2086 22.9367 18.9932 22.9408 17.1846C22.9444 15.6598 21.8646 14.2708 20.4826 14.0217L20.1082 13.9538L20.0969 13.5621C20.0501 11.9791 18.7782 10.7384 17.2007 10.7384C16.4038 10.7384 15.0203 11.249 14.4769 12.6546L14.2779 13.1682L13.812 12.8934C13.4249 12.6655 13.0601 12.5784 12.7355 12.5784C12.1494 12.5784 11.6923 12.8629 11.4589 13.1082C11.2134 13.367 10.6791 14.0742 11.0202 15.0537L11.1892 15.5409L10.7055 15.6798C9.93997 15.8979 8.83309 16.8665 8.83309 18.0453C8.83309 18.7355 8.97397 19.1989 9.30512 19.5947C9.42294 19.7354 9.56125 19.852 9.71018 19.9468V21.0014C9.29011 20.849 8.90005 20.5826 8.59855 20.223C8.11591 19.6445 7.90002 18.9732 7.90002 18.0453C7.90002 16.531 9.04532 15.3907 10.0212 14.9209C9.78629 13.627 10.5342 12.707 10.7926 12.4357C11.4483 11.7444 12.6024 11.3395 13.8249 11.8354C14.5889 10.4249 16.0602 9.77734 17.2007 9.77734C19.1602 9.77734 20.7625 11.2343 20.9992 13.1583C22.6656 13.6402 23.8775 15.3069 23.8738 17.1865Z" fill="white"/>
</svg>

<svg viewBox="0 0 32 32" fill="none" xmlns="http://www.w3.org/2000/svg"><path fill-rule="evenodd" clip-rule="evenodd" d="M16 4C9.4 4 4 9.4 4 16s5.4 12 12 12 12-5.4 12-12S22.6 4 16 4Z" fill="#00B956"/><path fill-rule="evenodd" clip-rule="evenodd" d="M10.9 19.567a.896.896 0 0 0-.89.904.898.898 0 0 0 .876.917c.488.003.886-.4.89-.904.004-.503-.389-.913-.876-.917ZM12.842 19.582c-.488-.004-.886.4-.89.904-.003.502.39.913.877.917.487.004.885-.401.889-.904.003-.502-.389-.913-.876-.917Z" fill="#731982"/><path fill-rule="evenodd" clip-rule="evenodd" d="M14.784 19.597c-.488-.004-.886.4-.89.904-.003.503.389.913.877.917.487.004.885-.4.89-.903.003-.503-.39-.914-.877-.918Z" fill="#fff"/><path fill-rule="evenodd" clip-rule="evenodd" d="m17.57 15.578-1.326-1.982h-.615l-1.325 1.982.653.464.58-.869v3.696h.796v-3.698l.583.87.654-.463Zm6.304 1.608c-.006 2.346-1.63 3.984-3.948 3.984h-3.913v-.961h3.913c1.8 0 3.01-1.216 3.015-3.024.003-1.525-1.076-2.914-2.458-3.163l-.375-.068-.011-.392a2.89 2.89 0 0 0-2.896-2.824c-.797 0-2.18.511-2.724 1.917l-.2.513-.465-.275a2.108 2.108 0 0 0-1.076-.315c-.587 0-1.044.285-1.277.53-.246.259-.78.966-.439 1.946l.17.487-.484.139c-.766.218-1.873 1.186-1.873 2.365 0 .69.141 1.154.472 1.55.118.14.256.257.405.352V21a2.626 2.626 0 0 1-1.111-.778c-.483-.578-.699-1.25-.699-2.178 0-1.514 1.145-2.654 2.121-3.124-.235-1.294.513-2.214.772-2.485.655-.692 1.81-1.097 3.032-.6.764-1.411 2.235-2.059 3.376-2.059 1.96 0 3.561 1.457 3.798 3.381 1.667.482 2.879 2.149 2.875 4.028Z" fill="#fff"/></svg>
